src/helpers/heroicons/outline/swatch.svg

<svg width="24" height="24" viewBox="0 0 24 24" fill="none" xmlns="http://www.w3.org/2000/svg">
<path d="M4.09835 19.9017C5.56282 21.3661 7.93719 21.3661 9.40165 19.9017L15.8033 13.5M6.75 21C4.67893 21 3 19.3211 3 17.25V4.125C3 3.50368 3.50368 3 4.125 3H9.375C9.99632 3 10.5 3.50368 10.5 4.125V8.1967M6.75 21C8.82107 21 10.5 19.3211 10.5 17.25V8.1967M6.75 21H19.875C20.4963 21 21 20.4963 21 19.875V14.625C21 14.0037 20.4963 13.5 19.875 13.5H15.8033M10.5 8.1967L13.3791 5.31757C13.8185 4.87823 14.5308 4.87823 14.9701 5.31757L18.6824 9.02988C19.1218 9.46922 19.1218 10.1815 18.6824 10.6209L15.8033 13.5M6.75 17.25H6.7575V17.2575H6.75V17.25Z"  stroke-width="1.5" stroke-linecap="round" stroke-linejoin="round"/>
</svg>

<svg xmlns="http://www.w3.org/2000/svg" fill="none" viewBox="0 0 24 24" stroke-width="1.5" stroke="currentColor" aria-hidden="true" data-slot="icon">
  <path stroke-linecap="round" stroke-linejoin="round" d="M4.098 19.902a3.75 3.75 0 0 0 5.304 0l6.401-6.402M6.75 21A3.75 3.75 0 0 1 3 17.25V4.125C3 3.504 3.504 3 4.125 3h5.25c.621 0 1.125.504 1.125 1.125v4.072M6.75 21a3.75 3.75 0 0 0 3.75-3.75V8.197M6.75 21h13.125c.621 0 1.125-.504 1.125-1.125v-5.25c0-.621-.504-1.125-1.125-1.125h-4.072M10.5 8.197l2.88-2.88c.438-.439 1.15-.439 1.59 0l3.712 3.713c.44.44.44 1.152 0 1.59l-2.879 2.88M6.75 17.25h.008v.008H6.75v-.008Z"/>
</svg>
